X: 3968
T: Blackjack Grove
R: reel
M: 4/4
K: Amixolydian
"A"a3 (a a)ged|cdef "Em"(3gag fg|"A"aAab aged|cdeg aAA(a|
a)aaa {b}aged|cdef "Em"(3ggg fg|"Em"aAgA "D"Jf2 ed|"A"(3cBA Bc AAgA|
"A"a3 (a a)ged|cdef gAA(a|a)aaa aged|cdeg aAgA|
"A"a3 a aged|cdef "Em"(3ggg fg|"E"aAgA "D"Jf2 ed|"A"(3cBA Bc AB{c}BA|
|:"A"c3A "Em"B2BA|"Em"^GABG "A"(3EFG BA|c3A "Em"B2 BA|^GABG "A"(3EFG GA|
"A"c3A "Em"B2BA|"Em"^GABc "A"dgz(a|"Em"a)aag "D"efed|1 "A"(3cBA Bc "Em"ABBB:|2 "A"(3cBA Bc Agza||

